X:5703
T:Rushcart Lads
O:england
M:4/4
L:1/8
K:G
d3ed2B2|ABcde4|d2B2B2G2|F4D4:||G2B2B2AG|F2A2A4|G2B2B2AG|F4D4|G2B2B2AG|F2
A2A4|d2d2^c2e2|d2f2d4||


